src/ui/assets/img/search-user.svg

<svg width="18" height="18" viewBox="0 0 18 18" fill="none" xmlns="http://www.w3.org/2000/svg">
    <path fill-rule="evenodd" clip-rule="evenodd" d="M2.85715 3.60001C2.85715 5.58823 4.45613 7.20001 6.42858 7.20001C8.40103 7.20001 10 5.58823 10 3.60001C10 1.61178 8.40103 0 6.42858 0C4.45613 0 2.85715 1.61178 2.85715 3.60001ZM12.8572 16.5523C12.4462 16.658 12.0154 16.7143 11.5714 16.7143C8.73113 16.7143 6.42859 14.4117 6.42859 11.5714C6.42859 10.5083 6.75115 9.52058 7.30375 8.7007C7.01759 8.66115 6.72544 8.64056 6.42858 8.64023C2.87981 8.6442 0.00393677 11.5431 0 15.1202V17.2802C0 17.6779 0.319798 18.0002 0.714287 18.0002H12.1429C12.5374 18.0002 12.8572 17.6779 12.8572 17.2802V16.5523Z" fill="#1F5AF6"/>
    <path d="M15.065 14.1834H14.6004L14.4357 14.0246C15.0121 13.3541 15.3591 12.4838 15.3591 11.5369C15.3591 9.4257 13.6477 7.71436 11.5365 7.71436C9.42521 7.71436 7.71387 9.4257 7.71387 11.5369C7.71387 13.6482 9.42521 15.3595 11.5365 15.3595C12.4833 15.3595 13.3537 15.0126 14.0241 14.4362L14.1829 14.6009V15.0655L17.1233 18.0001L17.9996 17.1238L15.065 14.1834ZM11.5365 14.1834C10.0721 14.1834 8.89005 13.0013 8.89005 11.5369C8.89005 10.0726 10.0721 8.89054 11.5365 8.89054C13.0008 8.89054 14.1829 10.0726 14.1829 11.5369C14.1829 13.0013 13.0008 14.1834 11.5365 14.1834Z" fill="#1F5AF6"/>
</svg>

<svg fill="none" height="18" width="18" xmlns="http://www.w3.org/2000/svg"><g fill="#1f5af6"><path clip-rule="evenodd" d="M2.857 3.6c0 1.988 1.6 3.6 3.572 3.6S10 5.588 10 3.6 8.401 0 6.429 0 2.857 1.612 2.857 3.6zm10 12.952A5.143 5.143 0 0 1 7.304 8.7a6.442 6.442 0 0 0-.875-.06C2.879 8.644.004 11.543 0 15.12v2.16c0 .398.32.72.714.72h11.429a.717.717 0 0 0 .714-.72z" fill-rule="evenodd"/><path d="M15.065 14.183H14.6l-.164-.158a3.823 3.823 0 1 0-.412.412l.159.164v.465L17.123 18l.877-.876zm-3.529 0a2.643 2.643 0 0 1-2.646-2.646 2.643 2.643 0 0 1 2.647-2.646 2.643 2.643 0 0 1 2.646 2.646 2.643 2.643 0 0 1-2.646 2.646z"/></g></svg>
